X:1
T: Durisdeer
C:
R:Strathspey
Q: 232
K:G
M:4/4
L:1/16
|:D4|B6 A2 G4 F4|G8 E4 E4|c6 B2 A4 G4|B8 A4 D4|
B6 A2 G4 F4|G8 E4 G2E2|D6 E2 D2E2 G4|G12:|
|:d4|G6 G2 G2B2 d4|g6 f2 e4 d4|c6 c2 B2A2 G4|e12 d2c2|
B6 A2 G4 F4|G8 E4 G2E2|D6 E2 D2E2 G4|G12:|
